!!!CDT:
!!!PTL: Il sesto libro de madrigali a sei voci
!!!PPP: Venice
!!!PPR: Angelo Gardano
!!!PDT: 1591
!!!PUB-format:
!!!RISM: M 3384
!!!rime: 165
!!!AGN: Madrigal
!!!SCT: Trm0165e
!!!SCA: Trm0165e
!!!original-voices: 6
!!!extant-voices: 3
!!!complete: N
!!!final: C
!!!COM: Monte, Filippo di
!!!OTL: Vorrei lagnarmi a pieno
**kern	**text	**kern	**text	**kern	**text
*part3	*part3	*part2	*part2	*part1	*part1
*staff3	*staff3	*staff2	*staff2	*staff1	*staff1
*I"Quinto	*	*I"Tenore	*	*I"Alto	*
*I'V	*	*I'T	*	*I'A	*
*oclefC3	*	*oclefC3	*	*oclefC2	*
*clefGv2	*	*clefGv2	*	*clefG2	*
*k[]	*	*k[]	*	*k[]	*
*C:	*	*C:	*	*C:	*
*omet(C)	*	*omet(C)	*	*omet(C)	*
*M4/2	*	*M4/2	*	*M4/2	*
=1	=1	=1	=1	=1	=1
0r	.	0r	.	2r	.
.	.	.	.	2e	Vor-
.	.	.	.	[1cc	-rei
=2	=2	=2	=2	=2	=2
0r	.	0r	.	2cc]	.
.	.	.	.	2g	la-
.	.	.	.	2a	-gnar-
.	.	.	.	2a	-mi a
=3	=3	=3	=3	=3	=3
0r	.	0r	.	1g	pie-
.	.	.	.	1c	-no
=4	=4	=4	=4	=4	=4
0r	.	0r	.	2r	.
.	.	.	.	2d	Sfo-
.	.	.	.	[1a	-gan-
=5	=5	=5	=5	=5	=5
1r	.	0r	.	2a]	.
.	.	.	.	2g	-do il
2r	.	.	.	2g	duol
2A	Sfo-	.	.	2e	ch'io
=6	=6	=6	=6	=6	=6
1.a	-gan-	0r	.	1f	sen-
.	.	.	.	1e	-to,
2g	-do il	.	.	.	.
=7	=7	=7	=7	=7	=7
2g	duol	2r	.	0r	.
2e	ch'io	1A	Sfo-	.	.
1f	sen-	.	.	.	.
.	.	[2a	-gan-	.	.
=8	=8	=8	=8	=8	=8
2e	-to,	2a]	.	0r	.
2e	<Sfo-	2g	-do il	.	.
2.c	-gan-	2f	duol	.	.
.	.	2e	ch'io	.	.
4c	-do il	.	.	.	.
=9	=9	=9	=9	=9	=9
2d	duol	0g	sen-	0r	.
2e	ch'io	.	.	.	.
1d	sen-	.	.	.	.
=10	=10	=10	=10	=10	=10
2c	-to,>	2e	-to,	4r	.
.	.	.	.	4c	Ma'l
2r	.	2r	.	4.g	vo-
.	.	.	.	8a	-stro
1r	.	1r	.	4g	sde-
.	.	.	.	4c	-gno
.	.	.	.	4.g	d'ir-
.	.	.	.	8g	-ri-
=11	=11	=11	=11	=11	=11
0r	.	1r	.	4a	-tar
.	.	.	.	4g	pa-
.	.	.	.	2f	-ven-
.	.	2r	.	2e	-to.
.	.	[2e	Dun-	[2g	Dun-
=12	=12	=12	=12	=12	=12
0r	.	2e]	.	2g]	.
.	.	2.d	-que	2.g	-que
.	.	4c	me-	4e	me-
.	.	4B	-glio è	4e	-glio è
.	.	4c	ch'io	4e	ch'io
=13	=13	=13	=13	=13	=13
1r	.	2d	tac-	2g	tac-
.	.	2d	-cia,	2g	-cia,
4r	.	1r	.	1cc	<Dun-
2e	Dun-	.	.	.	.
[4g	-que	.	.	.	.
=14	=14	=14	=14	=14	=14
4g]	.	0r	.	4b	-que
4e	me-	.	.	4a	me-
4e	-glio è	.	.	4g#X	-glio è
4e	ch'io	.	.	4g#i	ch'io
2f#X	tac-	.	.	2a	tac-
4g	-cia	.	.	2b	-cia,>
4g	E	.	.	.	.
=15	=15	=15	=15	=15	=15
2b-X	quel	0r	.	0r	.
2a	do-	.	.	.	.
4g	-lor	.	.	.	.
4d	sop-	.	.	.	.
2a	-por-	.	.	.	.
=16	=16	=16	=16	=16	=16
4d	-te,	0r	.	0r	.
4.g	Ch'o-	.	.	.	.
8f	-ve	.	.	.	.
4e	s'ac-	.	.	.	.
4f	-cre-	.	.	.	.
4e	-sca	.	.	.	.
2c	fia	.	.	.	.
=17	=17	=17	=17	=17	=17
2A	do-	0r	.	0r	.
4B	-lor	.	.	.	.
4c	di	.	.	.	.
1d	mor-	.	.	.	.
=18	=18	=18	=18	=18	=18
2G	-te,	2r	.	2r	.
2r	.	1d	<Dun-	1g	Dun-
1r	.	.	.	.	.
.	.	[2e	-que	[2g	-que
=19	=19	=19	=19	=19	=19
0r	.	4e]	.	4g]	.
.	.	4d	me-	4f	me-
.	.	4c#X	-glio è	4e	-glio è
.	.	4d	ch'io	4a	ch'io
.	.	2d	tac-	2g	tac-
.	.	4d	-cia>	2g	-cia
.	.	4g	E	.	.
=20	=20	=20	=20	=20	=20
4r	.	4.f	quel	0r	.
4d	E	.	.	.	.
.	.	8d	do-	.	.
4a	quel	4e	-lor	.	.
4e	do-	4cnXi	sop-	.	.
4g	-lor	8dL	-por-	.	.
.	.	8e	.	.	.
4a	sop-	8f	.	.	.
.	.	8dJ	.	.	.
2a	-por-	2e	.	.	.
=21	=21	=21	=21	=21	=21
2a	-te,	2d	-te,	4r	.
.	.	.	.	4.f	Ch'o-
2r	.	2r	.	.	.
.	.	.	.	8e	-ve
.	.	.	.	4d	s'ac-
1r	.	4r	.	4e	-cre-
.	.	4.d	Ch'o-	4f#X	-sca
.	.	.	.	4g	fia
.	.	8c	-ve	.	.
.	.	4B	s'ac-	4d	do-
=22	=22	=22	=22	=22	=22
0r	.	4c	-cre-	2g	-lor
.	.	4B	-sca	.	.
.	.	4A	fia	4fnXi	di
.	.	4e	do-	4.e	mor-
.	.	1a	-lor	.	.
.	.	.	.	8dL	.
.	.	.	.	8c	.
.	.	.	.	8BJ	.
.	.	.	.	8cL	.
.	.	.	.	8dJ	.
.	.	.	.	[4e	.
=23	=23	=23	=23	=23	=23
1r	.	2f	di	8e]L	.
.	.	.	.	8dJ	.
.	.	.	.	2d	.
.	.	2e	mor-	.	.
.	.	.	.	4c#i	.
4r	.	2d	-te.	2d	-te.
4d	Ma,	.	.	.	.
4.e	se	2r	.	2r	.
8f	fia	.	.	.	.
=24	=24	=24	=24	=24	=24
4g	che	0r	.	0r	.
4a	vi	.	.	.	.
2g	piac-	.	.	.	.
4g	-cia	.	.	.	.
4e	Il	.	.	.	.
4d	mio	.	.	.	.
4c	si-	.	.	.	.
=25	=25	=25	=25	=25	=25
4.f	-len-	0r	.	1r	.
8e	-tio, al-	.	.	.	.
2d	-me-	.	.	.	.
4c	-no	.	.	4r	.
4c	Me'l	.	.	4cc	Me'l
4d	mo-	.	.	4b	mo-
4d	-stri un	.	.	4a	-stri un
=26	=26	=26	=26	=26	=26
4e	ba-	0r	.	4g	ba-
4c	-le-	.	.	4cc	-le-
2.g	-nar	.	.	8bL	-nar
.	.	.	.	8a	.
.	.	.	.	8b	.
.	.	.	.	8ccJ	.
.	.	.	.	4b	.
4.c	d'oc-	.	.	4g	d'oc-
.	.	.	.	4f#X	-chi
8d	-chi	.	.	.	.
4e	se-	.	.	4g	se-
=27	=27	=27	=27	=27	=27
2d	-re-	2r	.	2a	-re-
2G	-no,	4r	.	4b	-no,
.	.	4d	Ma,	4g	Ma,
1r	.	4c	se	4e	se
.	.	4f	fia	4a	fia
.	.	4e	che	4g	che
.	.	4d	vi	4fnXi	vi
=28	=28	=28	=28	=28	=28
0r	.	2e	piac-	2g	piac-
.	.	4e	-cia	4g	-cia
.	.	4e	Il	4cc	Il
.	.	4.e	mio	4cc	mio
.	.	.	.	4b	si-
.	.	8d	si-	.	.
.	.	4e	-len-	4a	-len-
.	.	[4g	-tio, al-	4g	-tio, al-
=29	=29	=29	=29	=29	=29
2r	.	4g]	.	2cc	-me-
.	.	4f#i	-me-	.	.
4r	.	4g	-no	2b	-no
4d	Me'l	4g	Me'l	.	.
4a	mo-	4fnXi	mo-	1r	.
4a	-stri un	4e	-stri un	.	.
4f#X	ba-	4d	ba-	.	.
4g	-le-	4d	-le-	.	.
=30	=30	=30	=30	=30	=30
8gL	-nar	8eL	-nar	2r	.
8fnXi	.	8d	.	.	.
8g	.	8e	.	.	.
8aJ	.	8fJ	.	.	.
4g	.	4e	.	4r	.
4.f	d'oc-	4.c	d'oc-	4cc	d'oc-
.	.	.	.	4c	-chi
8e	-chi	8B	-chi	.	.
4c	se-	4A	se-	4c	se-
2d	-re-	2d	-re-	2g	-re-
=31	=31	=31	=31	=31	=31
0el	-no.	0cl	-no.	0gl	-no.
==	==	==	==	==	==
*-	*-	*-	*-	*-	*-
!!!system-decoration: [*]
!!!RDF**kern: i = editorial accidental
!!!RDF**kern: l = terminal long
!!!ENC: Emiliano Ricciardi
!!!END: 2019/08/08
!!!EED: Ricciardi, Emiliano
!!!EEV: 2019/08/08
!!!YEC: Copyright 2018 Emiliano Ricciardi, All Rights Reserved
!!!ONB: Translated from MusicXML on 2019/08/08 and edited by Craig Stuart Sapp
!!@@BEGIN:	VERSEDATA
!!@SOLERTI:	165
!!@CATALOGNUM:	Trm0165
!!@LAST_MODIFIED: 2020/07/12
!!@TITLE:		Vorrei lagnarmi a pieno
!!@GENRE:		madrigale
!!@MANUSRC:	C, Ts<sub>2</sub>, V<sub>13/TS2</sub>
!!@PRINTSRC:	22, 26, 31, 93, 141, 166, 169
!!@@BEGIN:	VERSES
!!@ABOUTIT:	Nel medesimo soggetto (i.e., "Dice che la signora Laura desiderando ch'egli celi l'amor suo desidera cosa impossibile." Rime 164)
!!@ABOUTEN:	On the same subject (i.e., "He says that lady Laura, in wishing that he hide his love, wishes for something impossible." Rime 164)
!!@EDITOR:	Solerti, Angelo
!!@EDITION_TITLE: Le Rime di Torquato Tasso
!!@EDITION_LOC:	Bologna
!!@EDITION_PUB:	Romagnoli-Dall’Acqua
!!@EDITION_DATE:  1898-1902
!!@EDITION_VOL:	2
!!@EDITION_PAGE:  247
!!@TRANSLATOR:	Emiliano Ricciardi and Amyrose McCue Gill
!!@VERSE:
!!	Vorrei lagnarmi a pieno
!!	Sfogando il duol ch'io sento,
!!	Ma  ben pi&ugrave; 'l vostro sdegno ognor pavento.
!!	Dunque il meglio &egrave; ch'io taccia
!!	E quel dolor sopporte,
!!	Ch'ove s'accresca fia dolor di morte.
!!	Ma, se fia che vi piaccia
!!	Il mio silenzio, almeno
!!	Il mostri un balenar d'occhi sereno.
!!@TVERSE:
!!	I would like to complain in full,
!!	Venting the pain that I feel,
!!	But much more do I always fear your scorn.
!!	So it is best that I remain silent
!!	And endure that sorrow
!!	That, should it increase, would become the sorrow of death.
!!	But, if it be that you like
!!	My silence, at least
!!	May a calm glance from your eyes show it.
!!@@END:		VERSES
!!@OTHER_CRIT_ED:   Torquato Tasso, <i>Rime d’amore (secondo il codice
!!		Chigiano L VIII 302)</i>, eds. Franco Gavazzeni and
!!		Vercingetorige Martignone, vol. 4 of <i>Edizione
!!		Nazionale delle opere di Torquato Tasso</i>
!!		(Alessandria: Edizioni Dell’Orso, 2004), 124.
!!@ATTRIBUTION_ABOUT:	Secure
!!		<br>
!!		Among other authoritative sources (see Literary Sources), this poem appears in the autograph Chigiano
!!		L.VIII.302 (Biblioteca Vaticana, Rome), compiled
!!		around 1584&ndash;85.
!!@DATING:
!!@DEDICATEE:	Peperara, Laura ?
!!@COMMENTARY:
!!@@END:		VERSEDATA
